X:1
T:Title
%%score 1 2 3
L:1/8
Q:1/4=100
M:3/4
K:C
V:1 treble nm="Grand Piano"
V:2 bass nm="Grand Piano, Melody"
V:3 bass nm="Grand Piano"
V:1
 z2 z2 CD | E4 FE | D4 G,2 | C4 [G,D]C | E4 GF | E4 C[K:bass]A, | G,4 E,G, | C4[K:treble] D2 | %8
 C4 GE | C4 DC | G,4 CE | G4 G[CF] | E4 CD | E4 CA, | G,4 C2 | E4 D2 | [CE]6 |] %17
V:2
 z2 z2 G,A, | C4 CA, | D4 C2 | E4 DC | A,4 G,A, | C4 CA, | D4 CD | E4 D2 | C4 CE | G4 GE | %10
 A G3 ED | C4 DC | A,4 G,A, | C4 CA, | D4 C2 | E4 D2 | C6 |] %17
V:3
 z2 z2 G,A, | C4 CA, | G,4 G,F, | E,4 G,A, | C4 G,A, | C,4 C,E, | G,4 CG, | E,4 G,2 | C,4 CA, | %9
 G,4 E,G, | C4 E,G, | C,4 G,A, | C4 G,A, | C,4 E,F, | G,4 G,F, | E,4 G,2 | C,6 |] %17

